Newaita-dark/actions/24/draw-brush.svg

<svg height="24" viewBox="0 0 24 24" width="24" xmlns="http://www.w3.org/2000/svg"><path d="m19.144531 4.285156c-1.363281-1.359375-3.550781-1.359375-4.914062 0l-6.3125 6.316406-.351563.347657c-4.492187 2.433593-1.292968 4.496093-4.21875 8.402343-.261718.253907-.183594.695313.152344.839844 4.023438 1.726563 7.527344.695313 8.976562-4.328125l6.667969-6.667969c1.359375-1.359374 1.359375-3.550781 0-4.910156zm-1.402343 1.402344c.582031.582031.582031 1.523438 0 2.105469l-.644532.640625-2.105468-2.101563.644531-.644531c.582031-.582031 1.519531-.582031 2.105469 0zm-3.449219 1.34375 2.101562 2.105469-.757812.761719-2.105469-2.105469zm-1.464844 1.464844 2.105469 2.105468-3.507813 3.507813-2.105469-2.105469zm-3.773437 6.578125c1.054687 1.054687-.4375 3.945312-2.890626 3.59375 1.402344-2.105469.785157-5.699219 2.890626-3.59375zm0 0" fill="#e0e0e0"/></svg>

<?xml version="1.0" encoding="UTF-8"?>
<svg xmlns="http://www.w3.org/2000/svg" xmlns:xlink="http://www.w3.org/1999/xlink" width="24px" height="24px" viewBox="0 0 24 24" version="1.1">
<g id="surface1">
<path style=" stroke:none;fill-rule:nonzero;fill:rgb(87.843138%,87.843138%,87.843138%);fill-opacity:1;" d="M 19.144531 4.285156 C 17.78125 2.925781 15.59375 2.925781 14.230469 4.285156 L 7.917969 10.601562 L 7.566406 10.949219 C 3.074219 13.382812 6.273438 15.445312 3.347656 19.351562 C 3.085938 19.605469 3.164062 20.046875 3.5 20.191406 C 7.523438 21.917969 11.027344 20.886719 12.476562 15.863281 L 19.144531 9.195312 C 20.503906 7.835938 20.503906 5.644531 19.144531 4.285156 Z M 17.742188 5.6875 C 18.324219 6.269531 18.324219 7.210938 17.742188 7.792969 L 17.097656 8.433594 L 14.992188 6.332031 L 15.636719 5.6875 C 16.21875 5.105469 17.15625 5.105469 17.742188 5.6875 Z M 14.292969 7.03125 L 16.394531 9.136719 L 15.636719 9.898438 L 13.53125 7.792969 Z M 12.828125 8.496094 L 14.933594 10.601562 L 11.425781 14.109375 L 9.320312 12.003906 Z M 9.054688 15.074219 C 10.109375 16.128906 8.617188 19.019531 6.164062 18.667969 C 7.566406 16.5625 6.949219 12.96875 9.054688 15.074219 Z M 9.054688 15.074219 "/>
</g>
</svg>
